X:1
T:He Is Able to Deliver Thee
T:He Is Able to Deliver Thee
T:William Augustine Ogden
T:William Augustine Ogden, 1887
T:Public Domain Courtesy of the Cyber Hymnal™
T:Public Domain Courtesy of the Cyber Hymnal™
C:William Augustine Ogden
Z:Public Domain
Z:Courtesy of the Cyber Hymnal™
%%score ( 1 2 ) ( 3 4 )
L:1/8
Q:1/4=107
M:4/4
K:Bb
V:1 treble 
V:2 treble 
V:3 bass 
V:4 bass 
V:1
 [DF]>[DF] | [DB]2 [DB]2 B2 [FB]>[Gc] | [FB]2 [FA]2 [FA]2 [FA]>[FB] | [FA]2 [EG]2 [EG]2 [EG]>[EB] | %4
w: 1.~’Tis the|grand- est theme through the|ag- es rung; ’Tis the|grand- est theme for a|
w: 2.~’Tis the|grand- est theme in the|earth or main; ’Tis the|grand- est theme for a|
w: 3.~’Tis the|grand- est theme, let the|tid- ings roll, To the|guilt- y heart, to the|
 [EG]2 [DF]2 [DF]2 [DF]>[DB] | [Fd]2 [Fd]2 [Fd]2 [Ge]>[Fd] | [Ec]2 [EG]2 (cB) ([FA][EG]) | %7
w: mor- tal tongue; ’Tis the|grand- est theme that the|world e’er sung, * “Our *|
w: mor- tal strain; ’Tis the|grand- est theme, tell the|world a- gain, * “Our *|
w: sin- ful soul; Look to|God in faith, He will|make thee whole, * “Our *|
 [DF]2 [DF]2 [CF][CF] [EG]>[EA] | [Ec]>[DB] [DB]4 ||"^Refrain" F>F | [DB]4- [DB][Fd] [Ec]>[DB] | %11
w: God is a- ble to de-|li- ver thee.”|||
w: God is a- ble to de-|liv- er thee.”|He is|a- * ble to de-|
w: God is a- ble to de-|liv- er thee.”|||
 [EB]>[EA] [EA]4 [EA]>D | [Ec]4- [Ec][Ge] [Fd]>[Ec] | [Ec]>[DB] [DB]4 [DB]>[Ec] | %14
w: |||
w: liv- er thee, He is|a- * ble to de-|liv- er thee; Though by|
w: |||
 [Fd]2 [F_Af]2 [FAf]2 [Fd]>[Fd] | [Ec]2 [EG]2 (cB) ([FA][EG]) | [DF]2 [DF]2 [CF][CF] [EG]>[EA] | %17
w: |||
w: sin op- pressed, go to|Him for rest; * “Our *|God is a- ble to de-|
w: |||
 [Ec]>[DB] [DB]4 |] %18
w: |
w: liv- er thee.”|
w: |
V:2
 x2 | x4 (DE) x2 | x8 | x8 | x8 | x8 | x4 G2 x2 | x8 | x6 || F>F | x8 | x8 | x8 | x8 | x8 | %15
 x4 G2 x2 | x8 | x6 |] %18
V:3
 [B,,B,]>[B,,B,] | [B,,F,]2 [B,,F,]2 B,2 [D,B,]>[E,E] | [F,D]2 [F,C]2 [F,C]2 [F,C]>[F,D] | %3
 [F,C]2 [F,C]2 [F,C]2 [F,A,]>[F,A,] | [B,,B,]2 [B,,B,]2 [B,,B,]2 [B,,B,]>[B,,B,] | %5
 [B,,B,]2 [B,,B,]2 [B,,B,]2 [B,,B,]>[B,,B,] | [E,G,]2 [E,C]2 [E,E]2 [E,B,]2 | %7
 [F,B,]2 [F,B,]2 [F,A,][F,A,] [F,C]>F, | [B,,F,]>[B,,B,] [B,,B,]4 || [B,,F,]>F, | %10
 ([B,,F,]>[B,,F,][B,,F,]>[B,,F,] [B,,F,]>)[B,,F,] [B,,F,]>[B,,B,] | %11
 [F,C]>[F,C] [F,C]4 [F,C]>[F,B,] | %12
 ([B,,F,]>[B,,F,][B,,F,]>[B,,F,] [B,,F,]>)[B,,F,] [B,,F,]>[B,,F,] | %13
 [B,,F,]>[B,,B,] [B,,B,]4 [B,,B,]>[B,,B,] | [B,,B,]2 [B,,D]2 [B,,D]2 [B,,B,]>[B,,B,] | %15
 [E,G,]2 [E,C]2 [E,E]2 [E,B,]2 | [F,B,]2 [F,B,]2 [F,A,][F,A,] [F,C]>F, | %17
 [B,,F,]>[B,,B,] [B,,B,]4 |] %18
V:4
 x2 | x4 (B,,C,) x2 | x8 | x8 | x8 | x8 | x8 | x8 | x6 || x2 | x8 | x8 | x8 | x8 | x8 | x8 | x8 | %17
 x6 |] %18

